X:1
T:Title
%%score { ( 1 3 ) | 2 }
L:1/8
Q:1/4=100
M:6/8
K:Db
V:1 treble nm="Grand Piano"
V:3 treble 
V:2 bass 
V:1
 F3 FFF | F3 A3 | [CA]3 [CE][DF][EG] | F6 | B3 Bcd | [Fd]3 F3 | E3 =GcB | [CA]6 | G3 GFG | e3 c3 | %10
w: John~R.~Sweney * * *||||||||||
 [FA]3 [FA][Af][Ge] | [Fd]6 | d3 edB | [FA]3 [Fd]3 | [DF]3 [A,CE][A,CF][K:bass][G,CE] | [F,D]6 | %16
w: ||||||
[M:12/8][K:treble] A6- A3 z3 | d6 z6 | G6- G3 z3 | A12 | d6- d3 z3 | e6 z6 | c6- c3 z3 | d12 |] %24
w: ||||||||
V:2
 [D,A,D]3 [D,A,D][D,A,D][D,A,D] | [D,A,D]3 [D,F,D]3 | [A,,E,]3 [A,,A,][A,,A,][A,,A,] | [D,A,D]6 | %4
 [G,D]3 [G,D][G,A,D][G,B,G] | [D,A,]3 [D,A,D]3 | [E,=G,D]3 [E,B,D][E,A,E][E,G,D] | [A,,A,]6 | %8
 [A,CE]3 [A,CE][A,_C=D][A,=CE] | [A,CG]3 [A,EG]3 | [D,D]3 [D,D][D,D][D,A,] | [D,A,]6 | %12
 [G,B,G]3 [G,B,G][G,B,G][G,DG] | [D,D]3 [D,A,]3 | A,3 A,,A,,A,, | D,6 | %16
[M:12/8] [D,D]3 [D,D][D,D][D,D] [D,D]3 .[D,D]3 | [A,F]3 A,A,A, [A,E]6 | %18
 [A,CE]3 [A,C][A,C][A,C] [A,C]3 .[A,CE]3 | [D,D]3 [D,D][D,D][D,D] [D,D]6 | %20
 [D,A,]3 [D,A,][D,A,][D,A,] [D,A,]3 .[D,A,]3 | [G,B,G]3 [G,B,][G,B,][G,B,][K:treble] [G,EG]6 | %22
 [A,EG]3 [A,E][A,E][A,E][K:bass] [A,E]2 [A,E] A,,A,,A,, | D,3 [D,B,][D,B,][D,B,] [D,A,]6 |] %24
V:3
 x6 | x6 | x6 | x6 | x6 | x6 | x6 | x6 | x6 | x6 | x6 | x6 | x6 | x6 | x5[K:bass] x | x6 | %16
[M:12/8][K:treble] F3 FFF F3 [FA]Fd | z3 FFF c6 | z3 EEE E3 GEB | F3 FFF F6 | F3 FFF F3 [Fd]cd | %21
 z3 GGG B6 | z3 GGG G2 G [EGc][EGB][EGc] | [DF]3 GGG F6 |] %24

